X:1
T:Mary Hamilton
M:3/4
L:1/4
K:A
 z2 A,| C2 B,| A,- C E| F3| E2 C| C2 E| E- D C| B,3-| B,2E/2-E/2| A2 A|\
 G G F| E2 C| A, A, B,|C/2-E/2 D C| B, C B,| A,3-| A,2 z|
